packages/icons/assets/HardDisk.svg

<svg xmlns="http://www.w3.org/2000/svg" fill="none" viewBox="0 0 16 16"><path fill="#414141" d="M13 14H9v-2H8v2H4v-2H3v2H2v-4H1V6h1V5H1V4h1V3H0V2h16v10h-2v2h-1zm-3-1h3v-1h-3v1zm-5 0h2v-1H5v1zm-1.938-2h12V3h-12v8zM7 7c0-.59334.17595-1.17336.50559-1.66671.32965-.49335.79818-.87787 1.34636-1.10493.54818-.22706 1.15135-.28647 1.73335-.17072.5819.11576 1.1165.40148 1.536.82104.4196.41956.7053.95411.8211 1.53605.1157.58194.0563 1.18514-.1708 1.73332-.227.54818-.6115 1.01671-1.1049 1.34636C11.1734 9.82405 10.5933 10 10 10c-.79565 0-1.55871-.31607-2.12132-.87868C7.31607 8.55871 7 7.79565 7 7zm1 0c0 .39556.1173.78224.33706 1.11114.21976.3289.53212.58524.89757.73662.36546.15137.76757.19098 1.15557.11381.3879-.07717.7443-.26765 1.024-.54736.2797-.2797.4702-.63607.5474-1.02403.0771-.38796.0375-.79009-.1138-1.15555-.1514-.36545-.4078-.67781-.7367-.89757C10.7822 5.1173 10.3956 5 10 5c-.53043 0-1.03914.21071-1.41421.58579C8.21071 5.96086 8 6.46957 8 7zm1 0c0-.19778.05865-.39112.16853-.55557.10988-.16445.26606-.29262.44879-.36831.18272-.07569.38378-.09549.57778-.05691.194.03859.3722.13383.512.27368.1399.13986.2351.31804.2737.51202.0386.19398.0188.39505-.0569.57777-.0757.18273-.2039.33891-.3683.44879C10.3911 7.94135 10.1978 8 10 8c-.26522 0-.51957-.10536-.70711-.29289C9.10536 7.51957 9 7.26522 9 7z"/></svg>

<svg width="16" height="16" viewBox="0 0 16 16" fill="none" xmlns="http://www.w3.org/2000/svg">
<path d="M13 14H9V12H8V14H4V12H3V14H2V10H1V6H2V5H1V4H2V3H0V2H16V12H14V14H13ZM10 13H13V12H10V13ZM5 13H7V12H5V13ZM3.062 11H15.062V3H3.062V11ZM7 7C7 6.40666 7.17595 5.82664 7.50559 5.33329C7.83524 4.83994 8.30377 4.45542 8.85195 4.22836C9.40013 4.0013 10.0033 3.94189 10.5853 4.05764C11.1672 4.1734 11.7018 4.45912 12.1213 4.87868C12.5409 5.29824 12.8266 5.83279 12.9424 6.41473C13.0581 6.99667 12.9987 7.59987 12.7716 8.14805C12.5446 8.69623 12.1601 9.16476 11.6667 9.49441C11.1734 9.82405 10.5933 10 10 10C9.20435 10 8.44129 9.68393 7.87868 9.12132C7.31607 8.55871 7 7.79565 7 7V7ZM8 7C8 7.39556 8.1173 7.78224 8.33706 8.11114C8.55682 8.44004 8.86918 8.69638 9.23463 8.84776C9.60009 8.99913 10.0022 9.03874 10.3902 8.96157C10.7781 8.8844 11.1345 8.69392 11.4142 8.41421C11.6939 8.13451 11.8844 7.77814 11.9616 7.39018C12.0387 7.00222 11.9991 6.60009 11.8478 6.23463C11.6964 5.86918 11.44 5.55682 11.1111 5.33706C10.7822 5.1173 10.3956 5 10 5C9.46957 5 8.96086 5.21071 8.58579 5.58579C8.21071 5.96086 8 6.46957 8 7V7ZM9 7C9 6.80222 9.05865 6.60888 9.16853 6.44443C9.27841 6.27998 9.43459 6.15181 9.61732 6.07612C9.80004 6.00043 10.0011 5.98063 10.1951 6.01921C10.3891 6.0578 10.5673 6.15304 10.7071 6.29289C10.847 6.43275 10.9422 6.61093 10.9808 6.80491C11.0194 6.99889 10.9996 7.19996 10.9239 7.38268C10.8482 7.56541 10.72 7.72159 10.5556 7.83147C10.3911 7.94135 10.1978 8 10 8C9.73478 8 9.48043 7.89464 9.29289 7.70711C9.10536 7.51957 9 7.26522 9 7Z" fill="#414141"/>
</svg>
